packages/icons/svg/Fill/stop-circle.svg

<svg fill="none" height="24" viewBox="0 0 24 24" width="24" xmlns="http://www.w3.org/2000/svg"><path clip-rule="evenodd" d="m10 14.0001h4v-4h-4zm6 .7499c0 .689-.561 1.25-1.25 1.25h-5.49998c-.689 0-1.25-.561-1.25-1.25v-5.5c0-.689.561-1.25 1.25-1.25h5.49998c.689 0 1.25.561 1.25 1.25zm-4-12.75c-5.51398 0-9.99998 4.486-9.99998 10s4.486 10 9.99998 10c5.514 0 10-4.486 10-10s-4.486-10-10-10z" fill="#6b7280" fill-rule="evenodd"/></svg>

<svg width="24" height="24" viewBox="0 0 24 24" fill="none" xmlns="http://www.w3.org/2000/svg">
<g id="Icon/Fill/stop-circle">
<path id="Mask" fill-rule="evenodd" clip-rule="evenodd" d="M10 14H14V10H10V14ZM16 14.75C16 15.439 15.439 16 14.75 16H9.25C8.561 16 8 15.439 8 14.75V9.25C8 8.561 8.561 8 9.25 8H14.75C15.439 8 16 8.561 16 9.25V14.75ZM12 2C6.486 2 2 6.486 2 12C2 17.514 6.486 22 12 22C17.514 22 22 17.514 22 12C22 6.486 17.514 2 12 2Z" fill="#000000"/>
</g>
</svg>
